icons/blogger.svg

<!-- Generated by IcoMoon.io -->
<svg version="1.1" xmlns="http://www.w3.org/2000/svg" width="32" height="32" viewBox="0 0 32 32">
<title>blogger</title>
<path fill="#ff5722" d="M29.301 32h-26.6c-1.501 0-2.701-1.2-2.701-2.699v-26.6c0-1.501 1.2-2.701 2.7-2.701h26.7c1.4 0 2.6 1.2 2.6 2.7v26.6c0 1.5-1.2 2.7-2.699 2.7zM16 5.3h-4c-3.7 0-6.7 3-6.7 6.7v8c0 3.699 3 6.699 6.7 6.699h8c3.699 0 6.699-3 6.699-6.699v-5.3c0-0.8-0.6-1.4-1.4-1.4h-1.299c-0.699 0-1.301-0.6-1.301-1.301 0-3.701-3-6.701-6.699-6.699zM20.099 21.3h-8.099c-0.7 0-1.3-0.6-1.3-1.3s0.6-1.301 1.3-1.301h8.099c0.701 0 1.303 0.6 1.303 1.301s-0.6 1.301-1.303 1.3zM16.699 10.7c0.703 0 1.301 0.6 1.301 1.3s-0.6 1.3-1.3 1.3h-4.8c-0.7 0-1.301-0.6-1.301-1.3s0.6-1.3 1.3-1.3z"></path>
</svg>

<?xml version="1.0" encoding="utf-8"?>
<!-- Generator: Adobe Illustrator 26.0.1, SVG Export Plug-In . SVG Version: 6.00 Build 0)  -->
<svg version="1.1" id="Layer_1" xmlns="http://www.w3.org/2000/svg" xmlns:xlink="http://www.w3.org/1999/xlink" x="0px" y="0px"
	 viewBox="0 0 32 32" style="enable-background:new 0 0 32 32;" xml:space="preserve">
<style type="text/css">
	.st0{fill:#FF5722;}
</style>
<path class="st0" d="M29.3,32H2.7C1.2,32,0,30.8,0,29.3V2.7C0,1.2,1.2,0,2.7,0h26.7C30.8,0,32,1.2,32,2.7v26.6
	C32,30.8,30.8,32,29.3,32z M16,5.3h-4c-3.7,0-6.7,3-6.7,6.7v8c0,3.7,3,6.7,6.7,6.7h8c3.7,0,6.7-3,6.7-6.7v-5.3
	c0-0.8-0.6-1.4-1.4-1.4H24c-0.7,0-1.3-0.6-1.3-1.3C22.7,8.3,19.7,5.3,16,5.3z M20.1,21.3H12c-0.7,0-1.3-0.6-1.3-1.3s0.6-1.3,1.3-1.3
	h8.1c0.7,0,1.3,0.6,1.3,1.3S20.8,21.3,20.1,21.3z M16.7,10.7c0.7,0,1.3,0.6,1.3,1.3s-0.6,1.3-1.3,1.3h-4.8c-0.7,0-1.3-0.6-1.3-1.3
	s0.6-1.3,1.3-1.3H16.7z"/>
</svg>
